svgs/sharp-solid/calendar-users.svg

<svg xmlns="http://www.w3.org/2000/svg" viewBox="0 0 640 512"><!--! Font Awesome Pro 6.6.0 by @fontawesome - https://fontawesome.com License - https://fontawesome.com/license (Commercial License) Copyright 2024 Fonticons, Inc. --><path d="M256 0l0 64 128 0 0-64 64 0 0 64 96 0 0 96L96 160l0-96 96 0 0-64 64 0zM128 192l384 0 0 1.1c-54.3 7.8-96 54.4-96 110.9c0 31.3 12.9 59.7 33.6 80L424 384 379.2 512l-118.4 0L216 384l-25.6 0c20.7-20.3 33.6-48.7 33.6-80c0-56.4-41.7-103.1-96-110.9l0-1.1zm-16 32a80 80 0 1 1 0 160 80 80 0 1 1 0-160zM224 512L0 512l32-96 160 0 32 96zM448 304a80 80 0 1 1 160 0 80 80 0 1 1 -160 0zM608 416l32 96-224 0 32-96 160 0z"/></svg>

<svg xmlns="http://www.w3.org/2000/svg" viewBox="0 0 640 512"><!--! Font Awesome Pro 6.4.2 by @fontawesome - https://fontawesome.com License - https://fontawesome.com/license (Commercial License) Copyright 2023 Fonticons, Inc. --><path d="M256 0V64H384V0h64V64h96v96H96V64h96V0h64zM128 192H512v1.1c-54.3 7.8-96 54.4-96 110.9c0 31.3 12.9 59.7 33.6 80H424L379.2 512H260.8L216 384H190.4c20.7-20.3 33.6-48.7 33.6-80c0-56.4-41.7-103.1-96-110.9V192zm-16 32a80 80 0 1 1 0 160 80 80 0 1 1 0-160zM224 512H0l32-96H192l32 96zM448 304a80 80 0 1 1 160 0 80 80 0 1 1 -160 0zM608 416l32 96H416l32-96H608z"/></svg>
